; generated by PrusaSlicer 2.5.0+MacOS-arm64 on 2023-11-11 at 11:57:14 UTC


;
;

;
;
; 

; external perimeters extrusion width = 0.45mm
; perimeters extrusion width = 0.45mm
; infill extrusion width = 0.45mm
; solid infill extrusion width = 0.45mm
; top infill extrusion width = 0.40mm
; first layer extrusion width = 0.42mm

M107
;TYPE:Custom
G90 ; use absolute coordinates
M83 ; extruder relative mode
M104 S120 ; set temporary nozzle temp to prevent oozing during homing and auto bed leveling
M140 S60 ; set final bed temp
G4 S10 ; allow partial nozzle warmup
G28 ; home all axis
G29 ; run abl mesh
M420 S1 ; load mesh
G1 Z50 F240
G1 X2 Y10 F3000
M104 S210 ; set final nozzle temp
M190 S60 ; wait for bed temp to stabilize
M109 S210 ; wait for nozzle temp to stabilize
G1 Z0.28 F240
G92 E0
G1 Y140 E10 F1500 ; prime the nozzle
G1 X2.3 F5000
G92 E0
G1 Y10 E10 F1200 ; prime the nozzle
G92 E0
G21 ; set units to millimeters
G90 ; use absolute coordinates
M83 ; use relative distances for extrusion
; Filament gcode
M107
;LAYER_CHANGE
;Z:0.2
;HEIGHT:0.2
;BEFORE_LAYER_CHANGE
G92 E0
;0.2


G1 E-5 F3600
G1 Z.2 F9000
;AFTER_LAYER_CHANGE
;0.2
G1 X40.758 Y40.062
G1 E5 F2400
;TYPE:Skirt/Brim
;WIDTH:0.42
G1 F1200
G1 X43.049 Y38.12 E.09416
G1 X44.872 Y36.888 E.06897
G1 X46.997 Y35.725 E.07596
G1 X49.071 Y34.847 E.07063
G1 X51.452 Y34.093 E.07829
G1 X54.351 Y33.53 E.09261
G1 X56.031 Y33.369 E.05291
G1 X177.575 Y33.324 E3.81092
G1 X180.51 Y33.512 E.09222
G1 X182.17 Y33.779 E.05271
G1 X184.468 Y34.356 E.0743
G1 X186.488 Y35.057 E.06702
G1 X188.742 Y36.102 E.07791
G1 X190.606 Y37.186 E.06761
G1 X191.951 Y38.12 E.05135
G1 X193.778 Y39.629 E.0743
G1 X195.371 Y41.222 E.07063
G1 X196.88 Y43.049 E.0743
G1 X197.814 Y44.394 E.05135
G1 X198.898 Y46.258 E.06761
G1 X199.9 Y48.406 E.0743
G1 X200.472 Y49.967 E.05213
G1 X201.04 Y52.021 E.06683
G1 X201.488 Y54.49 E.07868
G1 X201.677 Y57.5 E.09456
G1 X201.631 Y178.969 E3.80858
G1 X201.47 Y180.649 E.05291
G1 X201.04 Y182.979 E.0743
G1 X200.472 Y185.033 E.06683
G1 X199.943 Y186.488 E.04852
G1 X199.275 Y188.003 E.05193
G1 X198.139 Y190.083 E.0743
G1 X196.934 Y191.879 E.06781
G1 X195.974 Y193.092 E.04852
G1 X194.242 Y194.938 E.07937
G1 X191.951 Y196.88 E.09416
G1 X190.083 Y198.139 E.07063
G1 X187.905 Y199.322 E.07771
G1 X185.149 Y200.434 E.09319
G1 X182.979 Y201.04 E.07063
G1 X180.51 Y201.488 E.07868
G1 X177.575 Y201.676 E.09222
G1 X56.031 Y201.631 E3.81092
G1 X54.351 Y201.47 E.05291
G1 X52.021 Y201.04 E.0743
G1 X49.967 Y200.472 E.06683
G1 X48.512 Y199.943 E.04852
G1 X46.997 Y199.275 E.05193
G1 X44.917 Y198.139 E.0743
G1 X43.121 Y196.934 E.06781
G1 X41.908 Y195.974 E.04852
G1 X40.062 Y194.242 E.07937
G1 X38.12 Y191.951 E.09416
G1 X36.861 Y190.083 E.07063
G1 X35.678 Y187.905 E.07771
G1 X34.566 Y185.149 E.09319
G1 X33.96 Y182.979 E.07063
G1 X33.512 Y180.51 E.07868
G1 X33.324 Y177.575 E.09222
G1 X33.369 Y56.031 E3.81092
G1 X33.53 Y54.351 E.05291
G1 X33.96 Y52.021 E.0743
G1 X34.528 Y49.967 E.06683
G1 X35.057 Y48.512 E.04852
G1 X35.725 Y46.997 E.05193
G1 X36.861 Y44.917 E.0743
G1 X38.066 Y43.121 E.06781
G1 X39.026 Y41.908 E.04852
G1 X40.717 Y40.105 E.07749
G1 E-3.5 F3600
;WIPE_START
G1 F7200
G1 X43.001 Y38.161 E-1.425
;WIPE_END
G1 E-.075 F3600
G1 X42.809 Y42.619 F9000
G1 E5 F2400
;TYPE:Perimeter
;WIDTH:0.419999
G1 F1200
G1 X43.804 Y41.698 E.0425
G1 X44.858 Y40.843 E.04256
G1 X45.966 Y40.057 E.0426
G1 X46.889 Y39.483 E.03407
G1 X48.323 Y38.71 E.05107
G1 X49.559 Y38.154 E.04252
G1 X50.577 Y37.771 E.03408
G1 X52.133 Y37.288 E.05109
G1 X53.453 Y36.983 E.04248
G1 X54.792 Y36.764 E.04256
G1 X56.143 Y36.632 E.04256
G1 X57.511 Y36.587 E.04291
G1 X177.763 Y36.596 E3.77042
G1 X178.857 Y36.631 E.03429
G1 X180.208 Y36.764 E.04256
G1 X181.547 Y36.983 E.04256
G1 X182.87 Y37.289 E.04256
G1 X184.17 Y37.68 E.04256
G1 X185.439 Y38.154 E.04249
G1 X186.92 Y38.833 E.05108
G1 X187.878 Y39.345 E.03407
G1 X189.035 Y40.057 E.04259
G1 X190.14 Y40.842 E.0425
G1 X191.398 Y41.876 E.05106
G1 X192.191 Y42.619 E.03406
G1 X193.125 Y43.604 E.04256
G1 X194.158 Y44.86 E.051
G1 X194.943 Y45.965 E.0425
G1 X195.655 Y47.122 E.04259
G1 X196.167 Y48.08 E.03407
G1 X196.846 Y49.561 E.05108
G1 X197.32 Y50.83 E.04249
G1 X197.711 Y52.13 E.04256
G1 X198.017 Y53.453 E.04256
G1 X198.236 Y54.792 E.04256
G1 X198.368 Y56.143 E.04256
G1 X198.413 Y57.511 E.04291
G1 X198.413 Y177.489 E3.76181
G1 X198.368 Y178.857 E.04291
G1 X198.236 Y180.208 E.04256
G1 X198.017 Y181.547 E.04256
G1 X197.711 Y182.87 E.04256
G1 X197.32 Y184.17 E.04256
G1 X196.846 Y185.441 E.04256
G1 X196.29 Y186.677 E.04249
G1 X195.517 Y188.111 E.05107
G1 X194.943 Y189.034 E.03407
G1 X194.157 Y190.142 E.0426
G1 X193.303 Y191.194 E.0425
G1 X192.191 Y192.381 E.051
G1 X191.196 Y193.302 E.0425
G1 X190.142 Y194.157 E.04256
G1 X189.034 Y194.943 E.0426
G1 X188.111 Y195.517 E.03407
G1 X186.678 Y196.29 E.05107
G1 X185.441 Y196.846 E.04249
G1 X184.17 Y197.32 E.04256
G1 X182.87 Y197.711 E.04256
G1 X181.547 Y198.017 E.04256
G1 X180.208 Y198.236 E.04256
G1 X178.857 Y198.368 E.04256
G1 X177.489 Y198.413 E.04291
G1 X57.511 Y198.413 E3.76181
G1 X56.143 Y198.368 E.04291
G1 X54.792 Y198.236 E.04256
G1 X53.453 Y198.017 E.04256
G1 X52.13 Y197.711 E.04256
G1 X50.83 Y197.32 E.04256
G1 X49.559 Y196.846 E.04256
G1 X48.323 Y196.29 E.04249
G1 X46.889 Y195.517 E.05107
G1 X45.966 Y194.943 E.03407
G1 X44.858 Y194.157 E.0426
G1 X43.806 Y193.303 E.0425
G1 X42.619 Y192.191 E.051
G1 X41.698 Y191.196 E.0425
G1 X40.843 Y190.142 E.04256
G1 X40.057 Y189.034 E.0426
G1 X39.483 Y188.111 E.03407
G1 X38.71 Y186.677 E.05107
G1 X38.154 Y185.441 E.04249
G1 X37.68 Y184.17 E.04256
G1 X37.289 Y182.87 E.04256
G1 X36.983 Y181.547 E.04256
G1 X36.764 Y180.208 E.04256
G1 X36.632 Y178.857 E.04256
G1 X36.587 Y177.489 E.04291
G1 X36.587 Y57.511 E3.76181
G1 X36.632 Y56.143 E.04291
G1 X36.764 Y54.792 E.04256
G1 X36.983 Y53.453 E.04256
G1 X37.289 Y52.13 E.04256
G1 X37.68 Y50.83 E.04256
G1 X38.154 Y49.559 E.04256
G1 X38.71 Y48.323 E.04249
G1 X39.483 Y46.889 E.05107
G1 X40.057 Y45.966 E.03407
G1 X40.843 Y44.858 E.0426
G1 X41.697 Y43.806 E.0425
G1 X42.768 Y42.663 E.04912
G1 X42.543 Y42.351 F9000
;TYPE:External perimeter
G1 F1200
G1 X43.557 Y41.413 E.04331
G1 X44.63 Y40.542 E.04332
G1 X45.757 Y39.743 E.04334
G1 X46.7 Y39.157 E.03479
G1 X48.156 Y38.371 E.05187
G1 X49.416 Y37.805 E.04331
G1 X50.454 Y37.414 E.03479
G1 X52.034 Y36.924 E.05187
G1 X53.38 Y36.613 E.0433
G1 X54.743 Y36.389 E.04333
G1 X56.119 Y36.255 E.04333
G1 X57.505 Y36.21 E.04349
G1 X177.77 Y36.219 E3.77081
G1 X178.881 Y36.255 E.03487
G1 X180.257 Y36.389 E.04333
G1 X181.62 Y36.613 E.04333
G1 X182.967 Y36.924 E.04333
G1 X184.29 Y37.322 E.04332
G1 X185.584 Y37.805 E.0433
G1 X187.087 Y38.495 E.05187
G1 X188.066 Y39.018 E.03479
G1 X189.243 Y39.743 E.04334
G1 X190.37 Y40.542 E.0433
G1 X191.647 Y41.593 E.05186
G1 X192.457 Y42.351 E.03479
G1 X193.408 Y43.354 E.04332
G1 X194.458 Y44.63 E.05184
G1 X195.257 Y45.757 E.0433
G1 X195.982 Y46.934 E.04334
G1 X196.505 Y47.913 E.03479
G1 X197.195 Y49.416 E.05187
G1 X197.678 Y50.71 E.0433
G1 X198.076 Y52.033 E.04333
G1 X198.387 Y53.38 E.04332
G1 X198.611 Y54.743 E.04333
G1 X198.745 Y56.119 E.04333
G1 X198.79 Y57.505 E.04349
G1 X198.79 Y177.495 E3.7622
G1 X198.745 Y178.881 E.04349
G1 X198.611 Y180.257 E.04333
G1 X198.387 Y181.62 E.04333
G1 X198.076 Y182.967 E.04332
G1 X197.678 Y184.29 E.04333
G1 X197.195 Y185.585 E.04333
G1 X196.629 Y186.844 E.0433
G1 X195.843 Y188.3 E.05187
G1 X195.258 Y189.243 E.03479
G1 X194.458 Y190.37 E.04334
G1 X193.587 Y191.442 E.0433
G1 X192.457 Y192.649 E.05184
G1 X191.443 Y193.587 E.04331
G1 X190.37 Y194.458 E.04333
G1 X189.243 Y195.258 E.04334
G1 X188.3 Y195.843 E.03479
G1 X186.844 Y196.629 E.05187
G1 X185.585 Y197.195 E.0433
G1 X184.29 Y197.678 E.04333
G1 X182.967 Y198.076 E.04333
G1 X181.62 Y198.387 E.04333
G1 X180.257 Y198.611 E.04333
G1 X178.881 Y198.745 E.04333
G1 X177.495 Y198.79 E.04349
G1 X57.505 Y198.79 E3.7622
G1 X56.119 Y198.745 E.04349
G1 X54.743 Y198.611 E.04333
G1 X53.38 Y198.387 E.04333
G1 X52.033 Y198.076 E.04333
G1 X50.71 Y197.678 E.04333
G1 X49.415 Y197.195 E.04333
G1 X48.156 Y196.629 E.0433
G1 X46.7 Y195.843 E.05187
G1 X45.757 Y195.258 E.03479
G1 X44.63 Y194.458 E.04334
G1 X43.558 Y193.587 E.0433
G1 X42.351 Y192.457 E.05184
G1 X41.413 Y191.443 E.0433
G1 X40.542 Y190.37 E.04333
G1 X39.743 Y189.243 E.04334
G1 X39.157 Y188.3 E.03479
G1 X38.371 Y186.844 E.05187
G1 X37.805 Y185.585 E.0433
G1 X37.322 Y184.29 E.04333
G1 X36.924 Y182.967 E.04333
G1 X36.613 Y181.62 E.04332
G1 X36.389 Y180.257 E.04333
G1 X36.255 Y178.881 E.04333
G1 X36.21 Y177.495 E.04349
G1 X36.21 Y57.505 E3.7622
G1 X36.255 Y56.119 E.04349
G1 X36.389 Y54.743 E.04333
G1 X36.613 Y53.38 E.04333
G1 X36.924 Y52.033 E.04332
G1 X37.322 Y50.71 E.04333
G1 X37.805 Y49.415 E.04333
G1 X38.371 Y48.156 E.0433
G1 X39.157 Y46.7 E.05187
G1 X39.743 Y45.757 E.03479
G1 X40.542 Y44.63 E.04334
G1 X41.413 Y43.558 E.0433
G1 X42.502 Y42.395 E.04996
G1 X42.929 Y42.456 F9000
G1 E-3.5 F3600
;WIPE_START
G1 F7200
G1 X43.557 Y41.413 E-.6845
G1 X44.63 Y40.542 E-.65634
G1 X44.774 Y40.44 E-.08416
;WIPE_END
G1 E-.075 F3600
G1 X66.734 Y44.814 F9000
G1 E5 F2400
;TYPE:Perimeter
G1 F1200
G1 X66.398 Y44.348 E.01801
G1 X66.135 Y43.805 E.01892
G1 X65.953 Y43.175 E.02054
G1 X65.89 Y42.549 E.01973
G1 X65.936 Y41.922 E.01973
G1 X66.085 Y41.333 E.01905
G1 X66.347 Y40.741 E.02029
G1 X66.703 Y40.217 E.01986
G1 X67.142 Y39.766 E.01973
G1 X67.652 Y39.398 E.01973
G1 X68.219 Y39.124 E.01974
G1 X68.85 Y38.95 E.02053
G1 X69.451 Y38.89 E.01893
G1 X70.078 Y38.936 E.01973
G1 X70.689 Y39.09 E.01973
G1 X71.263 Y39.349 E.01973
G1 X71.783 Y39.703 E.01973
G1 X72.234 Y40.142 E.01973
G1 X72.602 Y40.652 E.01973
G1 X72.876 Y41.219 E.01973
G1 X73.047 Y41.825 E.01973
G1 X73.11 Y42.451 E.01973
G1 X73.064 Y43.078 E.01973
G1 X72.91 Y43.689 E.01973
G1 X72.651 Y44.263 E.01973
G1 X72.297 Y44.783 E.01973
G1 X71.858 Y45.234 E.01973
G1 X71.348 Y45.602 E.01973
G1 X70.781 Y45.876 E.01973
G1 X70.175 Y46.047 E.01973
G1 X69.549 Y46.11 E.01973
G1 X68.922 Y46.064 E.01973
G1 X68.311 Y45.91 E.01973
G1 X67.737 Y45.651 E.01973
G1 X67.235 Y45.31 E.01905
G1 X66.77 Y44.862 E.02025
G1 X67.034 Y44.593 F9000
;TYPE:External perimeter
G1 F1200
G1 X66.707 Y44.132 E.01772
G1 X66.477 Y43.645 E.01686
G1 X66.317 Y43.078 E.01849
G1 X66.265 Y42.516 E.01768
G1 X66.312 Y41.954 E.01768
G1 X66.449 Y41.43 E.01699
G1 X66.69 Y40.898 E.01831
G1 X67.011 Y40.433 E.01772
G1 X67.408 Y40.033 E.01768
G1 X67.868 Y39.707 E.01768
G1 X68.378 Y39.466 E.01768
G1 X68.945 Y39.315 E.01839
G1 X69.484 Y39.265 E.01695
G1 X70.046 Y39.312 E.01768
G1 X70.591 Y39.455 E.01768
G1 X71.103 Y39.69 E.01768
G1 X71.567 Y40.011 E.01768
G1 X71.967 Y40.408 E.01768
G1 X72.293 Y40.868 E.01768
G1 X72.534 Y41.378 E.01768
G1 X72.683 Y41.922 E.01768
G1 X72.735 Y42.484 E.01768
G1 X72.688 Y43.046 E.01768
G1 X72.545 Y43.591 E.01768
G1 X72.31 Y44.103 E.01768
G1 X71.989 Y44.567 E.01768
G1 X71.592 Y44.967 E.01768
G1 X71.132 Y45.293 E.01768
G1 X70.622 Y45.534 E.01768
G1 X70.078 Y45.683 E.01768
G1 X69.516 Y45.735 E.01768
G1 X68.954 Y45.688 E.01768
G1 X68.409 Y45.545 E.01768
G1 X67.897 Y45.31 E.01768
G1 X67.451 Y45.001 E.01699
G1 X67.076 Y44.635 E.01643
G1 X66.64 Y44.664 F9000
G1 E-3.5 F3600
;WIPE_START
G1 F7200
G1 X66.707 Y44.132 E-.29655
G1 X66.477 Y43.645 E-.25544
G1 X66.317 Y43.078 E-.28005
G1 X66.265 Y42.516 E-.26784
G1 X66.312 Y41.954 E-.26784
G1 X66.342 Y41.838 E-.05727
;WIPE_END
G1 E-.075 F3600
G1 X195.886 Y70.74 F9000
G1 E5 F2400
;TYPE:Perimeter
G1 F1200
G1 X195.651 Y71.263 E.01795
G1 X195.297 Y71.783 E.01973
G1 X194.858 Y72.234 E.01973
G1 X194.348 Y72.602 E.01973
G1 X193.801 Y72.867 E.01905
G1 X193.179 Y73.046 E.02029
G1 X192.549 Y73.11 E.01986
G1 X191.922 Y73.064 E.01973
G1 X191.311 Y72.91 E.01973
G1 X190.737 Y72.651 E.01973
G1 X190.217 Y72.297 E.01973
G1 X189.781 Y71.874 E.01905
G1 X189.4 Y71.351 E.02029
G1 X189.124 Y70.781 E.01986
G1 X188.953 Y70.175 E.01973
G1 X188.89 Y69.549 E.01973
G1 X188.936 Y68.922 E.01973
G1 X189.09 Y68.311 E.01973
G1 X189.349 Y67.737 E.01973
G1 X189.703 Y67.217 E.01973
G1 X190.142 Y66.766 E.01973
G1 X190.652 Y66.398 E.01973
G1 X191.147 Y66.158 E.01726
G1 X191.825 Y65.953 E.02218
G1 X192.429 Y65.892 E.01905
G1 X193.074 Y65.936 E.02029
G1 X193.689 Y66.09 E.01986
G1 X194.263 Y66.349 E.01973
G1 X194.783 Y66.703 E.01973
G1 X195.234 Y67.142 E.01973
G1 X195.602 Y67.652 E.01973
G1 X195.876 Y68.219 E.01973
G1 X196.047 Y68.825 E.01973
G1 X196.11 Y69.451 E.01973
G1 X196.064 Y70.078 E.01973
G1 X195.91 Y70.685 E.01963
G1 X195.545 Y70.591 F9000
;TYPE:External perimeter
G1 F1200
G1 X195.31 Y71.103 E.01768
G1 X194.989 Y71.567 E.01768
G1 X194.592 Y71.967 E.01768
G1 X194.132 Y72.293 E.01768
G1 X193.642 Y72.525 E.01699
G1 X193.079 Y72.682 E.01831
G1 X192.516 Y72.735 E.01772
G1 X191.954 Y72.688 E.01768
G1 X191.409 Y72.545 E.01768
G1 X190.897 Y72.31 E.01768
G1 X190.433 Y71.989 E.01768
G1 X190.048 Y71.607 E.01699
G1 X189.708 Y71.133 E.01831
G1 X189.466 Y70.622 E.01772
G1 X189.317 Y70.078 E.01768
G1 X189.265 Y69.516 E.01768
G1 X189.312 Y68.954 E.01768
G1 X189.455 Y68.409 E.01768
G1 X189.69 Y67.897 E.01768
G1 X190.011 Y67.433 E.01768
G1 X190.408 Y67.033 E.01768
G1 X190.868 Y66.707 E.01768
G1 X191.378 Y66.466 E.01768
G1 X191.922 Y66.317 E.01768
G1 X192.462 Y66.267 E.01699
G1 X193.044 Y66.311 E.01831
G1 X193.591 Y66.455 E.01772
G1 X194.103 Y66.69 E.01768
G1 X194.567 Y67.011 E.01768
G1 X194.967 Y67.408 E.01768
G1 X195.293 Y67.868 E.01768
G1 X195.534 Y68.378 E.01768
G1 X195.683 Y68.922 E.01768
G1 X195.735 Y69.484 E.01768
G1 X195.688 Y70.046 E.01768
G1 X195.561 Y70.533 E.0158
G1 X195.804 Y70.896 F9000
G1 E-3.5 F3600
;WIPE_START
G1 F7200
G1 X195.31 Y71.103 E-.29594
G1 X194.989 Y71.567 E-.26784
G1 X194.592 Y71.967 E-.26783
G1 X194.132 Y72.293 E-.26783
G1 X193.642 Y72.525 E-.25744
G1 X193.504 Y72.563 E-.06812
;WIPE_END
G1 E-.075 F3600
G1 X162.742 Y190.176 F9000
G1 E5 F2400
;TYPE:Perimeter
G1 F1200
G1 X163.142 Y189.766 E.01795
G1 X163.652 Y189.398 E.01973
G1 X164.219 Y189.124 E.01973
G1 X164.825 Y188.953 E.01973
G1 X165.429 Y188.892 E.01905
G1 X166.074 Y188.936 E.02029
G1 X166.688 Y189.09 E.01986
G1 X167.263 Y189.349 E.01973
G1 X167.783 Y189.703 E.01973
G1 X168.234 Y190.142 E.01973
G1 X168.602 Y190.652 E.01973
G1 X168.842 Y191.147 E.01726
G1 X169.047 Y191.825 E.02218
G1 X169.11 Y192.451 E.01973
G1 X169.064 Y193.078 E.01973
G1 X168.91 Y193.689 E.01973
G1 X168.651 Y194.263 E.01973
G1 X168.297 Y194.783 E.01973
G1 X167.858 Y195.234 E.01973
G1 X167.348 Y195.602 E.01973
G1 X166.801 Y195.867 E.01905
G1 X166.179 Y196.046 E.02029
G1 X165.549 Y196.11 E.01986
G1 X164.922 Y196.064 E.01973
G1 X164.312 Y195.91 E.01973
G1 X163.737 Y195.651 E.01973
G1 X163.235 Y195.31 E.01905
G1 X162.769 Y194.861 E.02029
G1 X162.398 Y194.348 E.01986
G1 X162.124 Y193.781 E.01973
G1 X161.953 Y193.175 E.01973
G1 X161.89 Y192.549 E.01973
G1 X161.936 Y191.922 E.01973
G1 X162.09 Y191.312 E.01973
G1 X162.349 Y190.737 E.01973
G1 X162.701 Y190.22 E.01963
G1 X163.011 Y190.433 F9000
;TYPE:External perimeter
G1 F1200
G1 X163.408 Y190.033 E.01768
G1 X163.868 Y189.707 E.01768
G1 X164.378 Y189.466 E.01768
G1 X164.922 Y189.317 E.01768
G1 X165.462 Y189.267 E.01699
G1 X166.044 Y189.311 E.01831
G1 X166.591 Y189.455 E.01772
G1 X167.103 Y189.69 E.01768
G1 X167.567 Y190.011 E.01768
G1 X167.967 Y190.408 E.01768
G1 X168.293 Y190.868 E.01768
G1 X168.534 Y191.378 E.01768
G1 X168.683 Y191.922 E.01768
G1 X168.735 Y192.484 E.01768
G1 X168.688 Y193.046 E.01768
G1 X168.545 Y193.591 E.01768
G1 X168.31 Y194.103 E.01768
G1 X167.989 Y194.567 E.01768
G1 X167.592 Y194.967 E.01768
G1 X167.132 Y195.293 E.01768
G1 X166.642 Y195.525 E.01699
G1 X166.079 Y195.682 E.01831
G1 X165.516 Y195.735 E.01772
G1 X164.954 Y195.688 E.01768
G1 X164.409 Y195.545 E.01768
G1 X163.897 Y195.31 E.01768
G1 X163.451 Y195.001 E.01699
G1 X163.034 Y194.593 E.01831
G1 X162.707 Y194.132 E.01772
G1 X162.466 Y193.622 E.01768
G1 X162.317 Y193.078 E.01768
G1 X162.265 Y192.516 E.01768
G1 X162.312 Y191.954 E.01768
G1 X162.455 Y191.409 E.01768
G1 X162.69 Y190.897 E.01768
G1 X162.977 Y190.483 E.0158
G1 X162.873 Y190.058 F9000
G1 E-3.5 F3600
;WIPE_START
G1 F7200
G1 X163.408 Y190.033 E-.29594
